X:1
T:G Major Stephen Jenks, 1807
T:Isaac Watts, 1719 (Psalm 122, Version 2)      668. 668.
T:New Haven
T:Transcribed from The Hartford Collection, 1807.
%%score [ 1 2 3 4 ]
L:1/8
Q:1/4=80
M:3/4
K:G
V:1 treble nm="Treble" snm="Tr."
V:2 treble nm="Counter" snm="C."
V:3 treble-8 nm="Tenor" snm="T."
V:4 bass nm="Bass" snm="B."
V:1
 B2 | (B>c d2) ec | B4 A2 | B4 d2 | d4 GB | B4 B2 | B4 B2 | (B>c d2) BA | G4 A2 | (G2 Ac) BA | %10
w: 1.~~How|pleased * * and *|blest was|I To|hear the *|peo- ple|cry, "Come,|let * * us *|seek our|God * * to- *|
 B4 d2 | (B>c d2) B2 | B4 Bc | A4 A2 | (B2 G2) AG | (c>d e2) d2 | d4 A2 | B>cBd cB | F>GFA Gc | %19
w: day!" Yes,|with * * a|cheer- ful *|zeal We|haste * to *|Zi- * * on's|hill, And|there * * * our *|vows * * * and *|
 B>AGc BA | A4 G2 | B4 cA | B4 d>e | (e2 d2) d2 | B6 |] %25
w: hon- * * * ors *|pay. And|there our *|vows and *|hon- * ors|pay.|
V:2
 D2 | G4 E^C | D4 D2 | D4 G2 | G4 G2 | G4 F2 | E4 D2 | G4 DE | G4 E2 | (B,2 CE) D2 | D4 G2 | %11
w: 2.~~May|peace at- *|tend thy|gate, And|joy with-|in thee|wait To|bless the *|soul of|eve- * * ry|guest! The|
 G4 GD | G4 G2 | F4 A2 | G4 FE | E4 F2 | D4 D2 | D4 DG | D4 B,C | (D2 GE) DA | F4 E2 | D4 E2 | %22
w: man that *|seeks thy|peace, And|wi- shes *|thine in-|crease, A|thou- sand *|bles- sings *|on * * * him|rest! A|thou- sand|
 G4 D>G | (G2 F2) F2 | G6 |] %25
w: bles- sings *|on * him|rest!|
V:3
 d2 | (d>c B2) cA | G4 F2 | G4 B2 | B4 e2 | e4 ^d2 | e4 d2 | (d>c B2) ge | d4 c2 | (B2 cA) GF | %10
w: 3.~~My|tongue * * re- *|peats her|vows, "Peace|to this|sa- cred|house!" For|there * * my *|friends and|kin- * * dred *|
 G4 B2 | (d>c B2) g2 | (d>c B2) fe | d4 d2 | (d>c B2) cB | (e>d c2) B>A | (G2 F2) D2 | G>AGB AG | %18
w: dwell; And|since * * my|glo- * * rious *|God Makes|thee * * his *|blest * * a- *|bode, * My|soul * * * shall *|
 A>BAc BA | B>cBe d^c | d4 g2 | (d>c B2) gf/e/ | d4 A>B | (c2 B2) A2 | G6 |] %25
w: e- * * * ver *|love * * * thee *|well. My|soul * * shall * *|e- ver *|love * thee|well.|
V:4
 G,2 | G,4 C2 | D4 D,2 | G,4 G,2 | G,4 E,2 | E,4 B,,2 | E,4 G,2 | G,4 G,A, | B,4 C2 | (D2 EC) DD, | %10
 G,4 G,2 | G,4 G,2 | G,4 G,A, | D,4 D,2 | G,4 A,B, | A,4 D,2 | D,4 F,2 | G,>F, G,2 F,E, | %18
 D,4 E,F, | G,>F,G,A, G,D, | D,4 E,2 | G,4 C,2 | G,4 F,>G, | (C,2 D,2) D,2 | G,,6 |] %25

